markup/sourceimages/icon3.svg

<svg xmlns="http://www.w3.org/2000/svg" width="169" height="168"><path fill-rule="evenodd" fill="#EDEDED" d="M154.124 103.602v64.397h-22.351v-36.398H36.782v36.398H14.431v-64.397c-7.715 0-13.97-6.269-13.97-14 0-7.732 6.255-14 13.97-14h36.393a13.873 13.873 0 0 1-2.867-8.4c.009-7.728 6.258-13.99 13.97-13.999h44.701c7.712.009 13.961 6.271 13.97 13.999a13.88 13.88 0 0 1-2.867 8.4h36.393c7.715 0 13.969 6.268 13.969 14 0 7.731-6.254 14-13.969 14zM137.361 162.4h11.175v-5.6h-5.587v-5.6h5.587v-47.598h-11.175V162.4zM36.782 126.001h94.991v-5.6H36.782v5.6zm0-11.2h94.991v-11.199H36.782v11.199zM20.019 151.2h5.587v5.6h-5.587v5.6h11.175v-58.798H20.019V151.2zm86.609-92.397H61.927c-4.629 0-8.382 3.76-8.382 8.399 0 4.64 3.753 8.4 8.382 8.4h44.701c4.629 0 8.382-3.76 8.382-8.4 0-4.639-3.753-8.399-8.382-8.399zm47.496 22.399H14.431c-4.629 0-8.382 3.761-8.382 8.4s3.753 8.4 8.382 8.4h139.693c4.629 0 8.382-3.761 8.382-8.4s-3.753-8.4-8.382-8.4zm-2.794 5.6h5.588v5.6h-5.588v-5.6zm-139.693 0h5.588v5.6h-5.588v-5.6zm102.909-48.844l-5.588 8.399a2.79 2.79 0 0 1-3.875.775 2.803 2.803 0 0 1-.773-3.883l4.553-6.846-4.559-6.846a2.805 2.805 0 0 1 .006-3.108l4.553-6.845-4.565-6.846a2.807 2.807 0 0 1 0-3.108l5.588-8.4a2.79 2.79 0 0 1 3.875-.775 2.804 2.804 0 0 1 .774 3.883l-4.554 6.846 4.554 6.846a2.807 2.807 0 0 1 0 3.108l-4.554 6.846 4.565 6.846c.627.94.627 2.166 0 3.108zm-25.145 0l-5.587 8.399a2.79 2.79 0 0 1-3.875.775 2.803 2.803 0 0 1-.774-3.883l4.554-6.846-4.56-6.846a2.805 2.805 0 0 1 .006-3.108l4.554-6.845-4.566-6.846a2.807 2.807 0 0 1 0-3.108l5.588-8.4a2.79 2.79 0 0 1 3.875-.775 2.803 2.803 0 0 1 .774 3.883l-4.554 6.846 4.554 6.846a2.803 2.803 0 0 1 0 3.108l-4.554 6.846 4.565 6.846c.627.94.627 2.166 0 3.108zm-25.144 0l-5.588 8.399a2.79 2.79 0 0 1-3.875.775 2.803 2.803 0 0 1-.774-3.883l4.554-6.846-4.56-6.846a2.807 2.807 0 0 1 .006-3.108l4.554-6.845-4.565-6.846a2.803 2.803 0 0 1 0-3.108l5.587-8.4a2.791 2.791 0 0 1 3.876-.775 2.803 2.803 0 0 1 .773 3.883l-4.554 6.846 4.554 6.846a2.803 2.803 0 0 1 0 3.108l-4.554 6.846 4.566 6.846c.626.94.626 2.166 0 3.108z"/></svg>

<svg 
 xmlns="http://www.w3.org/2000/svg"
 xmlns:xlink="http://www.w3.org/1999/xlink"
 width="169px" height="168px">
<path fill-rule="evenodd"  fill="rgb(237, 237, 237)"
 d="M154.124,103.602 L154.124,167.999 L131.773,167.999 L131.773,131.601 L36.782,131.601 L36.782,167.999 L14.431,167.999 L14.431,103.602 C6.716,103.602 0.461,97.333 0.461,89.602 C0.461,81.870 6.716,75.602 14.431,75.602 L50.824,75.602 C48.975,73.193 47.967,70.241 47.957,67.202 C47.966,59.474 54.215,53.212 61.927,53.203 L106.628,53.203 C114.340,53.212 120.589,59.474 120.598,67.202 C120.587,70.241 119.580,73.193 117.731,75.602 L154.124,75.602 C161.839,75.602 168.093,81.870 168.093,89.602 C168.093,97.333 161.839,103.602 154.124,103.602 ZM137.361,162.400 L148.536,162.400 L148.536,156.800 L142.949,156.800 L142.949,151.200 L148.536,151.200 L148.536,103.602 L137.361,103.602 L137.361,162.400 ZM36.782,126.001 L131.773,126.001 L131.773,120.401 L36.782,120.401 L36.782,126.001 ZM36.782,114.801 L131.773,114.801 L131.773,103.602 L36.782,103.602 L36.782,114.801 ZM20.019,151.200 L25.606,151.200 L25.606,156.800 L20.019,156.800 L20.019,162.400 L31.194,162.400 L31.194,103.602 L20.019,103.602 L20.019,151.200 ZM106.628,58.803 L61.927,58.803 C57.298,58.803 53.545,62.563 53.545,67.202 C53.545,71.842 57.298,75.602 61.927,75.602 L106.628,75.602 C111.257,75.602 115.010,71.842 115.010,67.202 C115.010,62.563 111.257,58.803 106.628,58.803 ZM154.124,81.202 L14.431,81.202 C9.802,81.202 6.049,84.963 6.049,89.602 C6.049,94.241 9.802,98.002 14.431,98.002 L154.124,98.002 C158.753,98.002 162.506,94.241 162.506,89.602 C162.506,84.963 158.753,81.202 154.124,81.202 ZM151.330,86.802 L156.918,86.802 L156.918,92.402 L151.330,92.402 L151.330,86.802 ZM11.637,86.802 L17.225,86.802 L17.225,92.402 L11.637,92.402 L11.637,86.802 ZM114.546,37.958 L108.958,46.357 C108.102,47.644 106.367,47.991 105.083,47.132 C103.800,46.274 103.453,44.536 104.310,43.249 L108.863,36.403 L104.304,29.557 C103.679,28.615 103.682,27.390 104.310,26.449 L108.863,19.604 L104.298,12.758 C103.672,11.817 103.672,10.591 104.298,9.650 L109.886,1.250 C110.742,-0.036 112.477,-0.384 113.761,0.475 C115.045,1.333 115.391,3.072 114.535,4.358 L109.981,11.204 L114.535,18.050 C115.161,18.991 115.161,20.217 114.535,21.158 L109.981,28.004 L114.546,34.850 C115.173,35.790 115.173,37.016 114.546,37.958 ZM89.401,37.958 L83.814,46.357 C82.957,47.644 81.222,47.991 79.939,47.132 C78.655,46.274 78.308,44.536 79.165,43.249 L83.719,36.403 L79.159,29.557 C78.534,28.615 78.537,27.390 79.165,26.449 L83.719,19.604 L79.153,12.758 C78.527,11.817 78.527,10.591 79.153,9.650 L84.741,1.250 C85.598,-0.036 87.332,-0.384 88.616,0.475 C89.900,1.333 90.247,3.072 89.390,4.358 L84.836,11.204 L89.390,18.050 C90.017,18.991 90.017,20.217 89.390,21.158 L84.836,28.004 L89.401,34.850 C90.028,35.790 90.028,37.016 89.401,37.958 ZM64.257,37.958 L58.669,46.357 C57.812,47.644 56.078,47.991 54.794,47.132 C53.510,46.274 53.164,44.536 54.020,43.249 L58.574,36.403 L54.014,29.557 C53.390,28.615 53.392,27.390 54.020,26.449 L58.574,19.604 L54.009,12.758 C53.382,11.817 53.382,10.591 54.009,9.650 L59.596,1.250 C60.453,-0.036 62.188,-0.384 63.472,0.475 C64.755,1.333 65.102,3.072 64.245,4.358 L59.691,11.204 L64.245,18.050 C64.872,18.991 64.872,20.217 64.245,21.158 L59.691,28.004 L64.257,34.850 C64.883,35.790 64.883,37.016 64.257,37.958 Z"/>
</svg>
